X:113
T:Hampsted Belles. JJo.113
B:J.Johnson Choice Collection Vol 8 1758
Z:vmp.Simon Wilson 2013 www.village-music-project.org.uk
M:6/8
L:1/8
Q:3/8=120
K:Bb
|:fdB fdB|bag fdB|fdB fdB|Ace dcB|fdB fdB|bag f=ef|cd=e fef|cd=ef3:|
|:cAF cAF|cdc cAF|Bdf fdB|cdBA2G|FDB, BFD|fdB bfd|efg fbB|FGAB3:|

